X:4145
L:1/8
Q:1/4=125
M:4/4
K:D
 F>G | A>d c>d A2 F>A | B2 B>A B2 (3BcB | A>B c>d e>d e>g | f2 f>e f2 F>G | A>d c>d A2 F>A | 
 B2 B>A B2 (3BcB | A>B c>d e>d e>f | d2 d>d d2 B>c | d2 d2 F2 G2 | (3BcB A>A A2 (3ABc | 
 d2 A>d (3fgf e>d | c2 c>c c2 A>c | e2 f2 g2 (3fgf | e2 a2 a2 c>B | A2 g/4f7/4 B2 c>A | 
 d>c d>e d2 |]

